Windows_logo_-_2021.svg

<?xml version="1.0" encoding="utf-8"?>
<!-- Generator: Adobe Illustrator 25.2.1, SVG Export Plug-In . SVG Version: 6.00 Build 0)  -->
<svg version="1.1" id="Layer_1" xmlns="http://www.w3.org/2000/svg" xmlns:xlink="http://www.w3.org/1999/xlink" x="0px" y="0px"
	 viewBox="0 0 58 58" style="enable-background:new 0 0 58 58;" xml:space="preserve">
<style type="text/css">
	.st0{fill:#FFFFFF;}
</style>
<path class="st0" d="M0,14v14h28V0H0V14z M30,14v14h28V0H30V14z M0,44v14h28V30H0V44z M30,44v14h28V30H30V44z"/>
</svg>

<svg version="1.2" baseProfile="tiny-ps" xmlns="http://www.w3.org/2000/svg" viewBox="0 0 58 58" width="58" height="58"><title>Untitled</title><style>tspan { white-space:pre }.shp0 { fill: #0078d4 } </style><path class="shp0" d="M0 14L0 28L28 28L28 0L0 0L0 14ZM30 14L30 28L58 28L58 0L30 0L30 14ZM0 44L0 58L28 58L28 30L0 30L0 44ZM30 44L30 58L58 58L58 30L30 30L30 44Z" /></svg>
